;FLAVOR:Marlin
;TIME:1139
;Filament used: 0.788319m
;Layer height: 0.2
;MINX:88.709
;MINY:85.525
;MINZ:0.3
;MAXX:111.897
;MAXY:108.713
;MAXZ:28.9
;Generated with Cura_SteamEngine main
M140 S60
M105
M190 S60
M104 S210
M105
M109 S210
M82 ;absolute extrusion mode
G21 ;metric values
 G90 ;absolute positioning
 M82 ;set extruder to absolute mode
 M107 ;start with the fan off
 G28 X0 Y0 ;move X/Y to min endstops
 G28 Z0 ;move Z to min endstops
 G1 Z15.0 F120 ;move the platform down 15mm
 G92 E0 ;zero the extruded length
 G1 F200 E6 ;extrude 6 mm of feed stock
 G92 E0 ;zero the extruded length again
 G1 F120 
 ;Put printing message on LCD screen
 M117 Printing...
G92 E0
G92 E0
G1 F2400 E-3
;LAYER_COUNT:144
;LAYER:0
M107
G0 F3600 X91.497 Y89.704 Z0.3
G0 X88.709 Y96.794
;TYPE:SKIRT
G1 F2400 E0
G1 F3000 X88.782 Y96.008 E0.03938
G1 X88.969 Y95.097 E0.08578
G1 X89.479 Y93.197 E0.18393
G1 X89.722 Y92.446 E0.22331
G1 X90.04 Y91.723 E0.26271
G1 X90.429 Y91.036 E0.3021
G1 X90.886 Y90.391 E0.34154
G1 X91.497 Y89.704 E0.38741
G1 X92.888 Y88.313 E0.48555
G1 X93.474 Y87.783 E0.52497
G1 X94.11 Y87.316 E0.56433
G1 X94.79 Y86.915 E0.60372
G1 X95.508 Y86.585 E0.64314
G1 X96.381 Y86.295 E0.68904
G1 X98.281 Y85.785 E0.78718
G1 X99.053 Y85.619 E0.82658
G1 X99.838 Y85.532 E0.86598
G1 X100.628 Y85.525 E0.9054
G1 X101.414 Y85.598 E0.94478
G1 X102.325 Y85.785 E0.99118
G1 X104.225 Y86.295 E1.08932
G1 X104.976 Y86.538 E1.1287
G1 X105.699 Y86.856 E1.16811
G1 X106.386 Y87.245 E1.2075
G1 X107.031 Y87.702 E1.24694
G1 X107.718 Y88.313 E1.2928
G1 X109.109 Y89.704 E1.39095
G1 X109.639 Y90.29 E1.43037
G1 X110.106 Y90.926 E1.46973
G1 X110.507 Y91.606 E1.50912
G1 X110.837 Y92.324 E1.54854
G1 X111.127 Y93.197 E1.59443
G1 X111.637 Y95.097 E1.69258
G1 X111.803 Y95.869 E1.73198
G1 X111.89 Y96.654 E1.77138
G1 X111.897 Y97.444 E1.8108
G1 X111.824 Y98.23 E1.85018
G1 X111.637 Y99.141 E1.89658
G1 X111.127 Y101.041 E1.99472
G1 X110.884 Y101.792 E2.0341
G1 X110.566 Y102.515 E2.07351
G1 X110.177 Y103.202 E2.1129
G1 X109.72 Y103.847 E2.15233
G1 X109.109 Y104.534 E2.1982
G1 X107.718 Y105.925 E2.29634
G1 X107.132 Y106.455 E2.33576
G1 X106.496 Y106.922 E2.37513
G1 X105.816 Y107.323 E2.41451
G1 X105.098 Y107.653 E2.45394
G1 X104.225 Y107.943 E2.49983
G1 X102.325 Y108.453 E2.59798
G1 X101.553 Y108.619 E2.63737
G1 X100.768 Y108.706 E2.67678
G1 X99.978 Y108.713 E2.71619
G1 X99.192 Y108.64 E2.75558
G1 X98.281 Y108.453 E2.80197
G1 X96.381 Y107.943 E2.90012
G1 X95.63 Y107.7 E2.9395
G1 X94.907 Y107.382 E2.97891
G1 X94.22 Y106.993 E3.01829
G1 X93.575 Y106.536 E3.05773
G1 X92.888 Y105.925 E3.1036
G1 X91.497 Y104.534 E3.20174
G1 X90.967 Y103.948 E3.24116
G1 X90.5 Y103.312 E3.28053
G1 X90.099 Y102.632 E3.31991
G1 X89.769 Y101.914 E3.35934
G1 X89.479 Y101.041 E3.40523
G1 X88.969 Y99.141 E3.50338
G1 X88.803 Y98.369 E3.54277
G1 X88.716 Y97.584 E3.58218
G1 X88.709 Y96.794 E3.62159
G0 F3600 X89.111 Y96.751
G1 F3000 X89.189 Y95.986 E3.65995
G1 X89.355 Y95.201 E3.69998
G1 X89.865 Y93.301 E3.79813
G1 X90.103 Y92.569 E3.83653
G1 X90.415 Y91.866 E3.8749
G1 X90.799 Y91.2 E3.91326
G1 X91.25 Y90.576 E3.95167
G1 X91.779 Y89.986 E3.9912
G1 X93.17 Y88.595 E4.08935
G1 X93.742 Y88.081 E4.12771
G1 X94.364 Y87.628 E4.1661
G1 X95.029 Y87.242 E4.20446
G1 X95.731 Y86.927 E4.24285
G1 X96.485 Y86.681 E4.28242
G1 X98.385 Y86.171 E4.38057
G1 X99.137 Y86.01 E4.41893
G1 X99.902 Y85.929 E4.45731
G1 X100.671 Y85.927 E4.49568
G1 X101.436 Y86.005 E4.53404
G1 X102.221 Y86.171 E4.57407
G1 X104.121 Y86.681 E4.67222
G1 X104.853 Y86.919 E4.71062
G1 X105.556 Y87.231 E4.74899
G1 X106.222 Y87.615 E4.78735
G1 X106.846 Y88.066 E4.82576
G1 X107.436 Y88.595 E4.86529
G1 X108.827 Y89.986 E4.96344
G1 X109.341 Y90.558 E5.0018
G1 X109.794 Y91.18 E5.04019
G1 X110.18 Y91.845 E5.07855
G1 X110.495 Y92.547 E5.11694
G1 X110.741 Y93.301 E5.15651
G1 X111.251 Y95.201 E5.25465
G1 X111.412 Y95.953 E5.29302
G1 X111.493 Y96.718 E5.3314
G1 X111.495 Y97.487 E5.36977
G1 X111.417 Y98.252 E5.40813
G1 X111.251 Y99.037 E5.44816
G1 X110.741 Y100.937 E5.54631
G1 X110.503 Y101.669 E5.58471
G1 X110.191 Y102.372 E5.62308
G1 X109.807 Y103.038 E5.66144
G1 X109.356 Y103.662 E5.69985
G1 X108.827 Y104.252 E5.73938
G1 X107.436 Y105.643 E5.83752
G1 X106.864 Y106.157 E5.87589
G1 X106.242 Y106.61 E5.91428
G1 X105.577 Y106.996 E5.95264
G1 X104.875 Y107.311 E5.99103
G1 X104.121 Y107.557 E6.0306
G1 X102.221 Y108.067 E6.12874
G1 X101.469 Y108.228 E6.16711
G1 X100.704 Y108.309 E6.20549
G1 X99.935 Y108.311 E6.24386
G1 X99.17 Y108.233 E6.28222
G1 X98.385 Y108.067 E6.32225
G1 X96.485 Y107.557 E6.4204
G1 X95.753 Y107.319 E6.4588
G1 X95.05 Y107.007 E6.49717
G1 X94.384 Y106.623 E6.53552
G1 X93.76 Y106.172 E6.57394
G1 X93.17 Y105.643 E6.61347
G1 X91.779 Y104.252 E6.71161
G1 X91.265 Y103.68 E6.74998
G1 X90.812 Y103.058 E6.78837
G1 X90.426 Y102.393 E6.82673
G1 X90.111 Y101.691 E6.86512
G1 X89.865 Y100.937 E6.90468
G1 X89.355 Y99.037 E7.00283
G1 X89.194 Y98.285 E7.0412
G1 X89.113 Y97.52 E7.07958
G1 X89.111 Y96.751 E7.11794
G0 F3600 X89.51 Y97.458
G1 F3000 X89.514 Y96.71 E7.15526
G1 X89.598 Y95.966 E7.19262
G1 X89.741 Y95.304 E7.22641
G1 X90.251 Y93.404 E7.32455
G1 X90.484 Y92.693 E7.36188
G1 X90.79 Y92.011 E7.39917
G1 X91.168 Y91.365 E7.43652
G1 X91.613 Y90.764 E7.47382
G1 X92.062 Y90.269 E7.50717
G1 X93.453 Y88.878 E7.60531
G1 X94.01 Y88.378 E7.64265
G1 X94.616 Y87.941 E7.67993
G1 X95.266 Y87.57 E7.71726
G1 X95.952 Y87.271 E7.7546
G1 X96.588 Y87.067 E7.78792
G1 X98.488 Y86.557 E7.88607
G1 X99.22 Y86.402 E7.9234
G1 X99.964 Y86.326 E7.96071
G1 X100.712 Y86.33 E7.99803
G1 X101.456 Y86.414 E8.03538
G1 X102.118 Y86.557 E8.06917
G1 X104.018 Y87.067 E8.16732
G1 X104.729 Y87.3 E8.20465
G1 X105.411 Y87.606 E8.24194
G1 X106.057 Y87.984 E8.27928
G1 X106.658 Y88.429 E8.31659
G1 X107.153 Y88.878 E8.34993
G1 X108.544 Y90.269 E8.44807
G1 X109.044 Y90.826 E8.48542
G1 X109.481 Y91.432 E8.52269
G1 X109.852 Y92.082 E8.56003
G1 X110.151 Y92.768 E8.59736
G1 X110.355 Y93.404 E8.63069
G1 X110.865 Y95.304 E8.72883
G1 X111.02 Y96.036 E8.76616
G1 X111.096 Y96.78 E8.80347
G1 X111.092 Y97.528 E8.84079
G1 X111.008 Y98.272 E8.87815
G1 X110.865 Y98.934 E8.91193
G1 X110.355 Y100.834 E9.01008
G1 X110.122 Y101.545 E9.04741
G1 X109.816 Y102.227 E9.0847
G1 X109.438 Y102.873 E9.12204
G1 X108.993 Y103.474 E9.15935
G1 X108.544 Y103.969 E9.19269
G1 X107.153 Y105.36 E9.29084
G1 X106.596 Y105.86 E9.32818
G1 X105.99 Y106.297 E9.36545
G1 X105.34 Y106.668 E9.40279
G1 X104.654 Y106.967 E9.44013
G1 X104.018 Y107.171 E9.47345
G1 X102.118 Y107.681 E9.5716
G1 X101.386 Y107.836 E9.60893
G1 X100.642 Y107.912 E9.64624
G1 X99.894 Y107.908 E9.68356
G1 X99.15 Y107.824 E9.72091
G1 X98.488 Y107.681 E9.7547
G1 X96.588 Y107.171 E9.85285
G1 X95.877 Y106.938 E9.89017
G1 X95.195 Y106.632 E9.92747
G1 X94.549 Y106.254 E9.96481
G1 X93.948 Y105.809 E10.00212
G1 X93.453 Y105.36 E10.03546
G1 X92.062 Y103.969 E10.1336
G1 X91.562 Y103.412 E10.17094
G1 X91.125 Y102.806 E10.20822
G1 X90.754 Y102.156 E10.24556
G1 X90.455 Y101.47 E10.28289
G1 X90.251 Y100.834 E10.31621
G1 X89.741 Y98.934 E10.41436
G1 X89.586 Y98.202 E10.45169
G1 X89.51 Y97.458 E10.489
G0 F3600 X89.908 Y97.396
G1 F3000 X89.917 Y96.67 E10.52522
G1 X90.007 Y95.949 E10.56147
G1 X90.128 Y95.408 E10.58913
G1 X90.638 Y93.508 E10.68728
G1 X90.864 Y92.818 E10.7235
G1 X91.165 Y92.157 E10.75974
G1 X91.537 Y91.533 E10.79598
G1 X91.975 Y90.954 E10.8322
G1 X92.345 Y90.552 E10.85946
G1 X93.736 Y89.161 E10.9576
G1 X94.277 Y88.677 E10.99382
G1 X94.868 Y88.254 E11.03008
G1 X95.502 Y87.9 E11.0663
G1 X96.171 Y87.617 E11.10254
G1 X96.692 Y87.454 E11.12978
G1 X98.592 Y86.944 E11.22793
G1 X99.303 Y86.794 E11.26418
G1 X100.026 Y86.724 E11.30042
G1 X100.752 Y86.733 E11.33664
G1 X101.473 Y86.823 E11.37289
G1 X102.014 Y86.944 E11.40055
G1 X103.914 Y87.454 E11.4987
G1 X104.604 Y87.68 E11.53492
G1 X105.265 Y87.981 E11.57116
G1 X105.889 Y88.353 E11.6074
G1 X106.468 Y88.791 E11.64362
G1 X106.87 Y89.161 E11.67088
G1 X108.261 Y90.552 E11.76902
G1 X108.745 Y91.093 E11.80524
G1 X109.168 Y91.684 E11.8415
G1 X109.522 Y92.318 E11.87772
G1 X109.805 Y92.987 E11.91396
G1 X109.968 Y93.508 E11.9412
G1 X110.478 Y95.408 E12.03934
G1 X110.628 Y96.119 E12.0756
G1 X110.698 Y96.842 E12.11184
G1 X110.689 Y97.568 E12.14806
G1 X110.599 Y98.289 E12.18431
G1 X110.478 Y98.83 E12.21197
G1 X109.968 Y100.73 E12.31011
G1 X109.742 Y101.42 E12.34634
G1 X109.441 Y102.081 E12.38257
G1 X109.069 Y102.705 E12.41882
G1 X108.631 Y103.284 E12.45504
G1 X108.261 Y103.686 E12.4823
G1 X106.87 Y105.077 E12.58044
G1 X106.329 Y105.561 E12.61665
G1 X105.738 Y105.984 E12.65291
G1 X105.104 Y106.338 E12.68914
G1 X104.435 Y106.621 E12.72538
G1 X103.914 Y106.784 E12.75261
G1 X102.014 Y107.294 E12.85076
G1 X101.303 Y107.444 E12.88701
G1 X100.58 Y107.514 E12.92325
G1 X99.854 Y107.505 E12.95948
G1 X99.133 Y107.415 E12.99573
G1 X98.592 Y107.294 E13.02338
G1 X96.692 Y106.784 E13.12153
G1 X96.002 Y106.558 E13.15775
G1 X95.341 Y106.257 E13.19399
G1 X94.717 Y105.885 E13.23023
G1 X94.138 Y105.447 E13.26645
G1 X93.736 Y105.077 E13.29371
G1 X92.345 Y103.686 E13.39185
G1 X91.861 Y103.145 E13.42807
G1 X91.438 Y102.554 E13.46433
G1 X91.084 Y101.92 E13.50056
G1 X90.801 Y101.251 E13.5368
G1 X90.638 Y100.73 E13.56403
G1 X90.128 Y98.83 E13.66218
G1 X89.978 Y98.119 E13.69843
G1 X89.908 Y97.396 E13.73467
G0 F3600 X90.306 Y97.336
G1 F3000 X90.321 Y96.632 E13.7698
G1 X90.432 Y95.817 E13.81084
G1 X91.024 Y93.612 E13.92474
G1 X91.245 Y92.943 E13.95989
G1 X91.54 Y92.304 E13.995
G1 X91.906 Y91.703 E14.03011
G1 X92.405 Y91.058 E14.0708
G1 X94.019 Y89.444 E14.18467
G1 X94.544 Y88.975 E14.21979
G1 X95.119 Y88.569 E14.25491
G1 X95.737 Y88.231 E14.29005
G1 X96.49 Y87.922 E14.33066
G1 X98.696 Y87.33 E14.44461
G1 X99.385 Y87.186 E14.47973
G1 X100.086 Y87.122 E14.51485
G1 X100.79 Y87.137 E14.54998
G1 X101.605 Y87.248 E14.59102
G1 X103.81 Y87.84 E14.70492
G1 X104.479 Y88.061 E14.74007
G1 X105.118 Y88.356 E14.77518
G1 X105.719 Y88.722 E14.81029
G1 X106.364 Y89.221 E14.85097
G1 X107.978 Y90.835 E14.96485
G1 X108.447 Y91.36 E14.99997
G1 X108.853 Y91.935 E15.03509
G1 X109.191 Y92.553 E15.07023
G1 X109.5 Y93.306 E15.11084
G1 X110.092 Y95.512 E15.22479
G1 X110.236 Y96.201 E15.25991
G1 X110.3 Y96.902 E15.29503
G1 X110.285 Y97.606 E15.33016
G1 X110.174 Y98.421 E15.37119
G1 X109.582 Y100.626 E15.4851
G1 X109.361 Y101.295 E15.52025
G1 X109.066 Y101.934 E15.55536
G1 X108.7 Y102.535 E15.59047
G1 X108.201 Y103.18 E15.63115
G1 X106.587 Y104.794 E15.74503
G1 X106.062 Y105.263 E15.78015
G1 X105.487 Y105.669 E15.81527
G1 X104.869 Y106.007 E15.85041
G1 X104.116 Y106.316 E15.89102
G1 X101.91 Y106.908 E16.00497
G1 X101.221 Y107.052 E16.04009
G1 X100.52 Y107.116 E16.0752
G1 X99.816 Y107.101 E16.11033
G1 X99.001 Y106.99 E16.15137
G1 X96.796 Y106.398 E16.26527
G1 X96.127 Y106.177 E16.30042
G1 X95.488 Y105.882 E16.33554
G1 X94.887 Y105.516 E16.37064
G1 X94.242 Y105.017 E16.41133
G1 X92.628 Y103.403 E16.52521
G1 X92.159 Y102.878 E16.56033
G1 X91.753 Y102.303 E16.59544
G1 X91.415 Y101.685 E16.63059
G1 X91.106 Y100.932 E16.67119
G1 X90.514 Y98.726 E16.78515
G1 X90.37 Y98.037 E16.82026
G1 X90.306 Y97.336 E16.85538
G0 F3600 X90.704 Y97.277
G1 F3000 X90.726 Y96.597 E16.88932
G1 X90.9 Y95.615 E16.93908
G1 X91.41 Y93.715 E17.03723
G1 X91.625 Y93.069 E17.07119
G1 X91.914 Y92.453 E17.10514
G1 X92.273 Y91.874 E17.13913
G1 X92.911 Y91.118 E17.18848
G1 X94.302 Y89.727 E17.28662
G1 X94.811 Y89.274 E17.32062
G1 X95.369 Y88.885 E17.35456
G1 X95.969 Y88.563 E17.38853
G1 X96.899 Y88.226 E17.43788
G1 X98.799 Y87.716 E17.53602
G1 X99.466 Y87.579 E17.57
G1 X100.145 Y87.52 E17.604
G1 X100.825 Y87.542 E17.63794
G1 X101.807 Y87.716 E17.6877
G1 X103.707 Y88.226 E17.78584
G1 X104.353 Y88.441 E17.81981
G1 X104.969 Y88.73 E17.85376
G1 X105.548 Y89.089 E17.88775
G1 X106.304 Y89.727 E17.9371
G1 X107.695 Y91.118 E18.03524
G1 X108.148 Y91.627 E18.06924
G1 X108.537 Y92.185 E18.10317
G1 X108.859 Y92.785 E18.13714
G1 X109.196 Y93.715 E18.18649
G1 X109.706 Y95.615 E18.28464
G1 X109.843 Y96.282 E18.31861
G1 X109.902 Y96.961 E18.35262
G1 X109.88 Y97.641 E18.38656
G1 X109.706 Y98.623 E18.43631
G1 X109.196 Y100.523 E18.53446
G1 X108.981 Y101.169 E18.56843
G1 X108.692 Y101.785 E18.60238
G1 X108.333 Y102.364 E18.63636
G1 X107.695 Y103.12 E18.68572
G1 X106.304 Y104.511 E18.78386
G1 X105.795 Y104.964 E18.81785
G1 X105.237 Y105.353 E18.85179
G1 X104.637 Y105.675 E18.88576
G1 X103.707 Y106.012 E18.93511
G1 X101.807 Y106.522 E19.03326
G1 X101.14 Y106.659 E19.06723
G1 X100.461 Y106.718 E19.10123
G1 X99.781 Y106.696 E19.13518
G1 X98.799 Y106.522 E19.18493
G1 X96.899 Y106.012 E19.28308
G1 X96.253 Y105.797 E19.31705
G1 X95.637 Y105.508 E19.35099
G1 X95.058 Y105.149 E19.38498
G1 X94.302 Y104.511 E19.43433
G1 X92.911 Y103.12 E19.53248
G1 X92.458 Y102.611 E19.56647
G1 X92.069 Y102.053 E19.60041
G1 X91.747 Y101.453 E19.63438
G1 X91.41 Y100.523 E19.68373
G1 X90.9 Y98.623 E19.78188
G1 X90.763 Y97.956 E19.81585
G1 X90.704 Y97.277 E19.84985
G0 F3600 X91.103 Y97.22
G1 F3000 X91.131 Y96.564 E19.88261
G1 X91.287 Y95.719 E19.92548
G1 X91.797 Y93.819 E20.02363
G1 X92.005 Y93.196 E20.05639
G1 X92.288 Y92.603 E20.08917
G1 X92.641 Y92.049 E20.12195
G1 X93.194 Y91.401 E20.16445
G1 X94.585 Y90.01 E20.26259
G1 X95.077 Y89.574 E20.29539
G1 X95.618 Y89.202 E20.32814
G1 X96.2 Y88.898 E20.3609
G1 X97.003 Y88.613 E20.40341
G1 X98.903 Y88.103 E20.50156
G1 X99.547 Y87.971 E20.53436
G1 X100.202 Y87.919 E20.56714
G1 X100.858 Y87.947 E20.5999
G1 X101.703 Y88.103 E20.64277
G1 X103.603 Y88.613 E20.74091
G1 X104.226 Y88.821 E20.77368
G1 X104.819 Y89.104 E20.80646
G1 X105.373 Y89.457 E20.83923
G1 X106.021 Y90.01 E20.88174
G1 X107.412 Y91.401 E20.97988
G1 X107.848 Y91.893 E21.01268
G1 X108.22 Y92.434 E21.04543
G1 X108.524 Y93.016 E21.07819
G1 X108.809 Y93.819 E21.1207
G1 X109.319 Y95.719 E21.21885
G1 X109.451 Y96.363 E21.25164
G1 X109.503 Y97.018 E21.28442
G1 X109.475 Y97.674 E21.31718
G1 X109.319 Y98.519 E21.36005
G1 X108.809 Y100.419 E21.4582
G1 X108.601 Y101.042 E21.49097
G1 X108.318 Y101.635 E21.52375
G1 X107.965 Y102.189 E21.55652
G1 X107.412 Y102.837 E21.59902
G1 X106.021 Y104.228 E21.69717
G1 X105.529 Y104.664 E21.72996
G1 X104.988 Y105.036 E21.76272
G1 X104.406 Y105.34 E21.79548
G1 X103.603 Y105.625 E21.83799
G1 X101.703 Y106.135 E21.93613
G1 X101.059 Y106.267 E21.96893
G1 X100.404 Y106.319 E22.00171
G1 X99.748 Y106.291 E22.03447
G1 X98.903 Y106.135 E22.07734
G1 X97.003 Y105.625 E22.17549
G1 X96.38 Y105.417 E22.20825
G1 X95.787 Y105.134 E22.24104
G1 X95.233 Y104.781 E22.27381
G1 X94.585 Y104.228 E22.31631
G1 X93.194 Y102.837 E22.41445
G1 X92.758 Y102.345 E22.44725
G1 X92.386 Y101.804 E22.48
G1 X92.082 Y101.222 E22.51276
G1 X91.797 Y100.419 E22.55527
G1 X91.287 Y98.519 E22.65342
G1 X91.155 Y97.875 E22.68622
G1 X91.103 Y97.22 E22.719
G0 F3600 X91.502 Y97.165
G1 F3000 X91.536 Y96.534 E22.75053
G1 X91.673 Y95.823 E22.78665
G1 X92.183 Y93.923 E22.8848
G1 X92.385 Y93.324 E22.91633
G1 X92.661 Y92.755 E22.94788
G1 X93.007 Y92.226 E22.97942
G1 X93.476 Y91.683 E23.01522
G1 X94.867 Y90.292 E23.11336
G1 X95.342 Y89.875 E23.14489
G1 X95.865 Y89.52 E23.17643
G1 X96.429 Y89.234 E23.20798
G1 X97.107 Y88.999 E23.24378
G1 X99.007 Y88.489 E23.34193
G1 X99.626 Y88.364 E23.37343
G1 X100.257 Y88.318 E23.405
G1 X100.888 Y88.352 E23.43652
G1 X101.599 Y88.489 E23.47265
G1 X103.499 Y88.999 E23.57079
G1 X104.098 Y89.201 E23.60233
G1 X104.667 Y89.477 E23.63388
G1 X105.196 Y89.823 E23.66542
G1 X105.739 Y90.292 E23.70121
G1 X107.13 Y91.683 E23.79936
G1 X107.547 Y92.158 E23.83089
G1 X107.902 Y92.681 E23.86243
G1 X108.188 Y93.245 E23.89398
G1 X108.423 Y93.923 E23.92977
G1 X108.933 Y95.823 E24.02792
G1 X109.058 Y96.442 E24.05943
G1 X109.104 Y97.073 E24.09099
G1 X109.07 Y97.704 E24.12252
G1 X108.933 Y98.415 E24.15864
G1 X108.423 Y100.315 E24.25679
G1 X108.221 Y100.914 E24.28833
G1 X107.945 Y101.483 E24.31988
G1 X107.599 Y102.012 E24.35141
G1 X107.13 Y102.555 E24.38721
G1 X105.739 Y103.946 E24.48535
G1 X105.264 Y104.363 E24.51689
G1 X104.741 Y104.718 E24.54842
G1 X104.177 Y105.004 E24.57997
G1 X103.499 Y105.239 E24.61577
G1 X101.599 Y105.749 E24.71392
G1 X100.98 Y105.874 E24.74542
G1 X100.349 Y105.92 E24.77699
